X: 688
M: 3/4
L: 1/8
K: G
V: 1
g2d2B2 | GFGAG2 | D2E2F2 | GFGAG2 | g2d2B2 | GFGAG2 | D2E2F2 | G6 |]
d2e2f2 | g4e2 | fgagaf | gbagfe | d2e2f2 | g4c2 | B2AGAF |[1 G6 ||[2 G4 |]
g2 |\
d4e2 | B4c2 | A2G2F2 | G2D2g2 | d4e2 | B4d2 | A2G2F2 |[1 G4 ||[2 G6 |]
V: 2 clef=bass middle=d
z2 |\
z2z2g2 | d4e2 | c4d2 | B4z2 | z2z2g2 | d4B2 | c4d2 |[1 G4 ||[2 G6 |]

